usr/share/icons/biglinux-icons-material/24/actions/view-grid.svg

<svg xmlns="http://www.w3.org/2000/svg" viewBox="0 0 24 24"><path d="M4 4v1h1V4H4zm5 0v1h1V4H9zm5 0v1h1V4h-1zm5 0v1h1V4h-1zM4 7v1h1V7H4zm5 0v1h1V7H9zm5 0v1h1V7h-1zm5 0v1h1V7h-1zM4 10v1h1v-1H4zm5 0v1h1v-1H9zm5 0v1h1v-1h-1zm5 0v1h1v-1h-1zM4 13v1h1v-1H4zm5 0v1h1v-1H9zm5 0v1h1v-1h-1zm5 0v1h1v-1h-1zM4 16v1h1v-1H4zm5 0v1h1v-1H9zm5 0v1h1v-1h-1zm5 0v1h1v-1h-1zM4 19v1h1v-1H4zm5 0v1h1v-1H9zm5 0v1h1v-1h-1zm5 0v1h1v-1h-1z" style="fill:currentColor;fill-opacity:1;stroke:none;color:#dedede"/></svg>

<svg xmlns="http://www.w3.org/2000/svg" viewBox="0 0 24 24">
  <defs id="defs3051">
    <style type="text/css" id="current-color-scheme">
      .ColorScheme-Text {
        color:#363636;
      }
      </style>
  </defs>
 <path style="fill:currentColor;fill-opacity:1;stroke:none" 
     d="M 4 4 L 4 5 L 5 5 L 5 4 L 4 4 z M 9 4 L 9 5 L 10 5 L 10 4 L 9 4 z M 14 4 L 14 5 L 15 5 L 15 4 L 14 4 z M 19 4 L 19 5 L 20 5 L 20 4 L 19 4 z M 4 7 L 4 8 L 5 8 L 5 7 L 4 7 z M 9 7 L 9 8 L 10 8 L 10 7 L 9 7 z M 14 7 L 14 8 L 15 8 L 15 7 L 14 7 z M 19 7 L 19 8 L 20 8 L 20 7 L 19 7 z M 4 10 L 4 11 L 5 11 L 5 10 L 4 10 z M 9 10 L 9 11 L 10 11 L 10 10 L 9 10 z M 14 10 L 14 11 L 15 11 L 15 10 L 14 10 z M 19 10 L 19 11 L 20 11 L 20 10 L 19 10 z M 4 13 L 4 14 L 5 14 L 5 13 L 4 13 z M 9 13 L 9 14 L 10 14 L 10 13 L 9 13 z M 14 13 L 14 14 L 15 14 L 15 13 L 14 13 z M 19 13 L 19 14 L 20 14 L 20 13 L 19 13 z M 4 16 L 4 17 L 5 17 L 5 16 L 4 16 z M 9 16 L 9 17 L 10 17 L 10 16 L 9 16 z M 14 16 L 14 17 L 15 17 L 15 16 L 14 16 z M 19 16 L 19 17 L 20 17 L 20 16 L 19 16 z M 4 19 L 4 20 L 5 20 L 5 19 L 4 19 z M 9 19 L 9 20 L 10 20 L 10 19 L 9 19 z M 14 19 L 14 20 L 15 20 L 15 19 L 14 19 z M 19 19 L 19 20 L 20 20 L 20 19 L 19 19 z "
     class="ColorScheme-Text"
     />
</svg>
